X:6257
T:Stanley for ever
O:england
M:4/4
N:in PDM as Mr Lane's Maggot (1st appeared 1695)
L:1/8
K:F
a4 g4 | f2gf e2A2 | defg e2A2 | defg e2A2 |\
a2ba g2ag | f2gf e2A2 | defg e2dc | d6 A2 :|
|:F2A2 F2A2 | F2A2 A2GF | G2B2 G2B2 | G2B2 B2AG |\
FGAG FGAG | FGAG D2a2 | g2fe f2ec | d6 A2:|


